public/assets/img/front.svg

<svg width="180" height="132" viewBox="0 0 180 132" fill="none" xmlns="http://www.w3.org/2000/svg">
<path d="M40.5 86C62.8675 86 81 67.8675 81 45.5C81 23.1325 62.8675 5 40.5 5C18.1325 5 0 23.1325 0 45.5C0 67.8675 18.1325 86 40.5 86Z" fill="url(#paint0_linear_1701_4036)"/>
<rect x="19" y="33" width="107" height="73" rx="8" fill="url(#paint1_linear_1701_4036)"/>
<rect x="19" y="33" width="107" height="73" rx="8" fill="#8B65C9" fill-opacity="0.24"/>
<rect x="25" y="27" width="107" height="73" rx="8" fill="url(#paint2_linear_1701_4036)"/>
<rect x="37" y="39" width="32" height="32" rx="4" fill="#9C42F5"/>
<path fill-rule="evenodd" clip-rule="evenodd" d="M56.4621 51.8046C56.4621 53.8749 54.9231 55.5546 53.009 55.5546C51.0871 55.5546 49.5559 53.8828 49.5481 51.8124C49.5403 49.789 51.1028 48.1406 53.009 48.1406C54.9153 48.1406 56.4621 49.7734 56.4621 51.8046ZM51.1114 51.8125C51.1114 53.0781 51.9786 54.0468 53.0098 54.0468C54.0411 54.0468 54.9004 53.0625 54.9004 51.8047C54.9004 50.5859 54.0411 49.6484 53.0098 49.6484C51.9786 49.6484 51.1036 50.6015 51.1114 51.8125ZM57.8457 62.8437C59.2285 62.8437 59.9082 62.3906 59.9082 61.4218C59.9082 59.1953 57.1504 56.414 53.002 56.414C48.8535 56.414 46.0957 59.1953 46.0957 61.4218C46.0957 62.3906 46.7754 62.8437 48.166 62.8437H57.8457ZM47.7832 61.1484C47.7832 61.2812 47.8457 61.3359 48.0176 61.3359H57.9863C58.1582 61.3359 58.2207 61.2812 58.2207 61.1484C58.2207 60.0234 56.3301 57.9218 53.002 57.9218C49.6738 57.9218 47.7832 60.0234 47.7832 61.1484Z" fill="white"/>
<rect x="81" y="39" width="39" height="2" rx="1" fill="#DEDAF5"/>
<rect x="81" y="47" width="39" height="2" rx="1" fill="#DEDAF5"/>
<rect x="81" y="61" width="17" height="2" rx="1" fill="#DEDAF5"/>
<rect x="81" y="69" width="24" height="2" rx="1" fill="#DEDAF5"/>
<rect x="37" y="86" width="83" height="2" rx="1" fill="#DEDAF5"/>
<defs>
<linearGradient id="paint0_linear_1701_4036" x1="-40.5" y1="45.5" x2="40.5" y2="126.5" gradientUnits="userSpaceOnUse">
<stop stop-color="#FF5E00"/>
<stop offset="0.541068" stop-color="#F54562"/>
<stop offset="1" stop-color="#C32DE1"/>
</linearGradient>
<linearGradient id="paint1_linear_1701_4036" x1="96.7037" y1="44.188" x2="71.3472" y2="129.041" gradientUnits="userSpaceOnUse">
<stop stop-color="white"/>
<stop offset="0.9964" stop-color="#EBEFF2"/>
</linearGradient>
<linearGradient id="paint2_linear_1701_4036" x1="102.704" y1="38.188" x2="77.3472" y2="123.041" gradientUnits="userSpaceOnUse">
<stop stop-color="white"/>
<stop offset="0.9964" stop-color="#EBEFF2"/>
</linearGradient>
</defs>
</svg>

<svg width="180" height="132" fill="none" xmlns="http://www.w3.org/2000/svg"><path d="M40.5 86C62.867 86 81 67.868 81 45.5 81 23.133 62.867 5 40.5 5S0 23.133 0 45.5C0 67.868 18.133 86 40.5 86Z" fill="url(#a)"/><rect x="19" y="33" width="107" height="73" rx="8" fill="url(#b)"/><rect x="19" y="33" width="107" height="73" rx="8" fill="#8B65C9" fill-opacity=".24"/><rect x="25" y="27" width="107" height="73" rx="8" fill="url(#c)"/><rect x="37" y="39" width="32" height="32" rx="4" fill="#9C42F5"/><path fill-rule="evenodd" clip-rule="evenodd" d="M56.462 51.805c0 2.07-1.539 3.75-3.453 3.75-1.922 0-3.453-1.672-3.46-3.743-.009-2.023 1.554-3.671 3.46-3.671s3.453 1.632 3.453 3.664Zm-5.35.008c0 1.265.867 2.234 1.898 2.234s1.89-.984 1.89-2.242c0-1.22-.859-2.157-1.89-2.157s-1.906.953-1.899 2.164Zm6.734 11.03c1.383 0 2.062-.452 2.062-1.421 0-2.227-2.758-5.008-6.906-5.008-4.149 0-6.906 2.781-6.906 5.008 0 .969.68 1.422 2.07 1.422h9.68Zm-10.063-1.695c0 .133.063.188.235.188h9.968c.172 0 .235-.055.235-.188 0-1.125-1.89-3.226-5.219-3.226-3.328 0-5.219 2.101-5.219 3.226Z" fill="#fff"/><rect x="81" y="39" width="39" height="2" rx="1" fill="#DEDAF5"/><rect x="81" y="47" width="39" height="2" rx="1" fill="#DEDAF5"/><rect x="81" y="61" width="17" height="2" rx="1" fill="#DEDAF5"/><rect x="81" y="69" width="24" height="2" rx="1" fill="#DEDAF5"/><rect x="37" y="86" width="83" height="2" rx="1" fill="#DEDAF5"/><defs><linearGradient id="a" x1="-40.5" y1="45.5" x2="40.5" y2="126.5" gradientUnits="userSpaceOnUse"><stop stop-color="#FF5E00"/><stop offset=".541" stop-color="#F54562"/><stop offset="1" stop-color="#C32DE1"/></linearGradient><linearGradient id="b" x1="96.704" y1="44.188" x2="71.347" y2="129.041" gradientUnits="userSpaceOnUse"><stop stop-color="#fff"/><stop offset=".996" stop-color="#EBEFF2"/></linearGradient><linearGradient id="c" x1="102.704" y1="38.188" x2="77.347" y2="123.041" gradientUnits="userSpaceOnUse"><stop stop-color="#fff"/><stop offset=".996" stop-color="#EBEFF2"/></linearGradient></defs></svg>
